X: 2341
T: DURANG'S HORNPIPE
%R: hornpipe, reel
B: James Kerr "Merry Melodies" v.2 p.38 #341
Z: 2016 John Chambers <jc:trillian.mit.edu>
M: C
L: 1/8
K: D
uA2 |:\
DAFA DAFA | Bcdc BAFA |\
[1,3 DAFA DAFA | A,ECE A,ECE :|\
[2,4 fgaf bgec | d2d2d2 ::\
uA2 |\
defe dcBA |
Bcdc BAGF |\
E2E2 edcB | Acec dBA^G |\
A^GAB cBcd | e^def gfge |\
fgaf bgec | d2d2d2 :|
